public/images/logos/python.svg

<svg width="28" height="28" viewBox="0 0 28 28" fill="none" xmlns="http://www.w3.org/2000/svg">
<g clip-path="url(#clip0_123_15)">
<path d="M13.893 1.55713C7.56232 1.55713 7.9576 4.30248 7.9576 4.30248L7.96463 7.14674H14.0059V8.00066H5.56515C5.56515 8.00066 1.51416 7.54123 1.51416 13.9288C1.51416 20.3166 5.04996 20.0901 5.04996 20.0901H7.16011V17.1259C7.16011 17.1259 7.04635 13.5901 10.6395 13.5901H16.6313C16.6313 13.5901 19.9977 13.6445 19.9977 10.3366V4.86717C19.9977 4.86717 20.509 1.55713 13.893 1.55713ZM10.5618 3.46984C10.7046 3.46971 10.846 3.49773 10.9779 3.55231C11.1098 3.60688 11.2297 3.68693 11.3306 3.78787C11.4316 3.88882 11.5116 4.00868 11.5662 4.14059C11.6208 4.27251 11.6488 4.41389 11.6487 4.55665C11.6488 4.69941 11.6208 4.84079 11.5662 4.97271C11.5116 5.10462 11.4316 5.22448 11.3306 5.32543C11.2297 5.42638 11.1098 5.50642 10.9779 5.561C10.846 5.61557 10.7046 5.64359 10.5618 5.64346C10.4191 5.64359 10.2777 5.61557 10.1458 5.561C10.0139 5.50642 9.89401 5.42638 9.79307 5.32543C9.69212 5.22448 9.61207 5.10462 9.5575 4.97271C9.50293 4.84079 9.4749 4.69941 9.47503 4.55665C9.4749 4.41389 9.50293 4.27251 9.5575 4.14059C9.61207 4.00868 9.69212 3.88882 9.79307 3.78787C9.89401 3.68693 10.0139 3.60688 10.1458 3.55231C10.2777 3.49773 10.4191 3.46971 10.5618 3.46984Z" fill="url(#paint0_linear_123_15)"/>
<path d="M14.0727 26.3647C20.4033 26.3647 20.0081 23.6194 20.0081 23.6194L20.001 20.7752H13.9597V19.9213H22.4004C22.4004 19.9213 26.4514 20.3807 26.4514 13.9929C26.4514 7.60526 22.9156 7.8318 22.9156 7.8318H20.8055V10.7959C20.8055 10.7959 20.9192 14.3317 17.3261 14.3317H11.3343C11.3343 14.3317 7.9679 14.2773 7.9679 17.5853V23.0548C7.9679 23.0548 7.45672 26.3647 14.0726 26.3647H14.0727ZM17.4038 24.4522C17.2611 24.4523 17.1197 24.4243 16.9878 24.3697C16.8559 24.3152 16.736 24.2351 16.635 24.1342C16.5341 24.0332 16.4541 23.9134 16.3995 23.7815C16.3449 23.6495 16.3169 23.5082 16.317 23.3654C16.3169 23.2226 16.3449 23.0812 16.3995 22.9493C16.454 22.8174 16.5341 22.6975 16.635 22.5966C16.736 22.4956 16.8558 22.4155 16.9877 22.361C17.1197 22.3064 17.2611 22.2784 17.4038 22.2785C17.5466 22.2784 17.688 22.3064 17.8199 22.361C17.9518 22.4155 18.0717 22.4956 18.1726 22.5965C18.2736 22.6975 18.3536 22.8173 18.4082 22.9492C18.4627 23.0812 18.4908 23.2225 18.4906 23.3653C18.4908 23.5081 18.4627 23.6494 18.4082 23.7814C18.3536 23.9133 18.2736 24.0331 18.1726 24.1341C18.0717 24.235 17.9518 24.3151 17.8199 24.3696C17.688 24.4242 17.5466 24.4522 17.4038 24.4521V24.4522Z" fill="url(#paint1_linear_123_15)"/>
</g>
<defs>
<linearGradient id="paint0_linear_123_15" x1="3.91063" y1="3.78843" x2="16.2688" y2="16.0233" gradientUnits="userSpaceOnUse">
<stop stop-color="#387EB8"/>
<stop offset="1" stop-color="#366994"/>
</linearGradient>
<linearGradient id="paint1_linear_123_15" x1="11.496" y1="11.6449" x2="24.7673" y2="24.1906" gradientUnits="userSpaceOnUse">
<stop stop-color="#FFE052"/>
<stop offset="1" stop-color="#FFC331"/>
</linearGradient>
<clipPath id="clip0_123_15">
<rect width="25" height="24.9" fill="white" transform="translate(1.5 1.55005)"/>
</clipPath>
</defs>
</svg>

<svg xmlns="http://www.w3.org/2000/svg" width="28" height="28" fill="none" xmlns:v="https://vecta.io/nano"><g clip-path="url(#C)"><path d="M13.893 1.557c-6.331 0-5.935 2.745-5.935 2.745l.007 2.844h6.041v.854H5.565s-4.051-.459-4.051 5.928S5.05 20.09 5.05 20.09h2.11v-2.964s-.114-3.536 3.479-3.536h5.992s3.366.054 3.366-3.253V4.867s.511-3.31-6.105-3.31zM10.562 3.47c.143 0 .284.028.416.082s.252.135.353.236.181.221.236.353.083.273.082.416-.028.284-.082.416-.135.252-.236.353-.221.181-.353.236-.273.083-.416.082-.284-.028-.416-.082-.252-.135-.353-.236-.181-.221-.236-.353-.083-.273-.082-.416.028-.284.082-.416.135-.252.236-.353.221-.181.353-.236.273-.083.416-.082z" fill="url(#A)"/><path d="M14.073 26.365c6.331 0 5.935-2.745 5.935-2.745l-.007-2.844H13.96v-.854H22.4s4.051.459 4.051-5.928-3.536-6.161-3.536-6.161h-2.11v2.964s.114 3.536-3.479 3.536h-5.992s-3.366-.054-3.366 3.254v5.47s-.511 3.31 6.105 3.31h0zm3.331-1.912c-.143 0-.284-.028-.416-.082s-.252-.135-.353-.236-.181-.221-.236-.353-.083-.273-.082-.416.028-.284.082-.416.135-.252.236-.353.221-.181.353-.236.273-.083.416-.082.284.028.416.082.252.135.353.235.181.221.236.353.083.273.082.416-.028.284-.082.416-.135.252-.236.353-.221.181-.353.235-.273.083-.416.083h0z" fill="url(#B)"/></g><defs><linearGradient id="A" x1="3.911" y1="3.788" x2="16.269" y2="16.023" gradientUnits="userSpaceOnUse"><stop stop-color="#387eb8"/><stop offset="1" stop-color="#366994"/></linearGradient><linearGradient id="B" x1="11.496" y1="11.645" x2="24.767" y2="24.191" gradientUnits="userSpaceOnUse"><stop stop-color="#ffe052"/><stop offset="1" stop-color="#ffc331"/></linearGradient><clipPath id="C"><path fill="#fff" transform="translate(1.5 1.55)" d="M0 0h25v24.9H0z"/></clipPath></defs></svg>
